lib/svgs/pin.svg

<svg xmlns="http://www.w3.org/2000/svg" viewBox="0 0 20 20">
    <path fill="#000" fill-rule="evenodd" d="M2.17598593,7.74651407 C1.94167136,7.51219949 1.94167136,7.13230051 2.17598593,6.89798593 C2.41030051,6.66367136 2.79019949,6.66367136 3.02451407,6.89798593 L4.28114023,8.15461209 L11.840348,4.03120943 L10.8334026,3.02426407 C10.599088,2.78994949 10.599088,2.41005051 10.8334026,2.17573593 C11.0677172,1.94142136 11.4476162,1.94142136 11.6819307,2.17573593 L13.2404676,3.7342728 C13.2509757,3.74404425 15.6076246,6.10142979 15.6076246,6.10142979 C15.6142273,6.10773637 17.1910974,7.6849026 17.1910974,7.6849026 C17.425412,7.91921717 17.425412,8.29911616 17.1910974,8.53343074 C16.9567828,8.76774531 16.5768838,8.76774531 16.3425693,8.53343074 L15.3355749,7.52643635 L11.2121722,15.0856441 L12.4686807,16.3421526 C12.7029953,16.5764672 12.7029953,16.9563662 12.4686807,17.1906807 C12.2343662,17.4249953 11.8544672,17.4249953 11.6201526,17.1906807 L10.0613329,15.631861 C10.0507336,15.6220046 7.32245833,12.8929865 7.32245833,12.8929865 L3.02426407,17.1911807 C2.78994949,17.4254953 2.41005051,17.4254953 2.17573593,17.1911807 C1.94142136,16.9568662 1.94142136,16.5769672 2.17573593,16.3426526 L6.4739302,12.0444583 L3.75990844,9.33043658 C3.75334227,9.32416497 2.17598593,7.74651407 2.17598593,7.74651407 Z M5.16560302,9.03907488 L7.74071482,11.6141867 C7.74876988,11.6221584 10.3277094,14.2011813 10.3277094,14.2011813 L14.4511121,6.64197356 L12.7248108,4.91567222 L5.16560302,9.03907488 L5.16560302,9.03907488 Z"/>
</svg>

<svg xmlns="http://www.w3.org/2000/svg" viewBox="0 0 20 20">
    <path fill="#000" fill-rule="evenodd" d="M2.176 7.747a.6.6 0 0 1 .849-.849L4.28 8.155l7.56-4.124-1.008-1.007a.6.6 0 1 1 .849-.848l1.558 1.558 2.368 2.367 1.583 1.584a.6.6 0 1 1-.848.848l-1.007-1.007-4.124 7.56 1.257 1.256a.6.6 0 1 1-.849.849l-1.559-1.56-2.739-2.738-4.298 4.298a.6.6 0 1 1-.848-.848l4.298-4.299L3.76 9.33m1.406-.29l2.575 2.574 2.587 2.587 4.123-7.559-1.726-1.726-7.56 4.123"/>
</svg>
